front/public/images/bye.svg

<svg width="24" height="24" viewBox="0 0 24 24" fill="none" xmlns="http://www.w3.org/2000/svg">
<path fill-rule="evenodd" clip-rule="evenodd" d="M8.58958 7.31498C8.10345 6.82885 8.10345 6.04067 8.58958 5.55454C9.07571 5.06841 9.86389 5.06841 10.35 5.55454L17.6948 12.8994C17.7334 12.8345 17.7815 12.6994 17.7815 12.4827C17.7815 12.4098 17.6877 12.1807 17.5561 11.8591C17.0741 10.6814 16.0844 8.26305 17.3288 7.72974C18.4963 7.22938 19.418 9.80171 20.094 11.688C20.3353 12.3614 20.5452 12.9473 20.7239 13.2748C20.7451 13.3138 20.7671 13.3539 20.7898 13.3951C21.4904 14.6695 22.7748 17.006 19.7054 20.4043C16.5367 23.9124 11.8969 22.2149 10.3126 20.6306C9.58144 19.8994 8.88792 19.1833 8.26683 18.5344C8.26181 18.5296 8.25681 18.5247 8.25185 18.5197L3.61069 13.8785C3.12456 13.3924 3.12456 12.6042 3.61069 12.1181C4.09682 11.632 4.885 11.632 5.37113 12.1181L8.84618 15.5932L9.01749 15.4382L3.83662 10.2573C3.35049 9.77116 3.35049 8.98298 3.83662 8.49685C4.32275 8.01072 5.11092 8.01072 5.59706 8.49685L10.866 13.7657L11.0376 13.6104L5.4212 7.99397C4.93507 7.50784 4.93507 6.71966 5.4212 6.23353C5.90733 5.7474 6.6955 5.7474 7.18164 6.23353L12.8861 11.938L13.0575 11.7829L8.58958 7.31498Z" fill="#EA580C"/>
<path d="M12.3975 2.97119C12.8189 2.95516 13.8212 3.11962 14.4588 3.90569C15.0965 4.69176 15.2717 5.6575 15.2795 6.04211" stroke="#FACC15" stroke-width="1.19251" stroke-linecap="round"/>
<path d="M15.1709 1.29346C15.4316 1.28404 16.0519 1.38818 16.4474 1.88013C16.843 2.37208 16.9528 2.97561 16.9582 3.21588" stroke="#FACC15" stroke-width="1.19251" stroke-linecap="round"/>
<path d="M7.33887 20.6328C6.92109 20.6905 5.90744 20.6262 5.19506 19.9071C4.48267 19.1881 4.2127 18.2444 4.16676 17.8625" stroke="#FACC15" stroke-width="1.19251" stroke-linecap="round"/>
<path d="M4.74512 22.5767C4.48664 22.6119 3.85909 22.5697 3.41673 22.1193C2.97436 21.669 2.80539 21.0793 2.7762 20.8407" stroke="#FACC15" stroke-width="1.19251" stroke-linecap="round"/>
</svg>

<svg width="24" height="24" fill="none" xmlns="http://www.w3.org/2000/svg">
    <path fill-rule="evenodd" clip-rule="evenodd" d="M8.59 7.315a1.245 1.245 0 0 1 1.76-1.76l7.345 7.345c.038-.065.087-.2.087-.417 0-.073-.094-.302-.226-.623-.482-1.178-1.472-3.596-.227-4.13 1.167-.5 2.089 2.072 2.765 3.958.241.674.451 1.26.63 1.587l.066.12c.7 1.275 1.985 3.611-1.085 7.01-3.168 3.508-7.808 1.81-9.392.226a134.159 134.159 0 0 1-2.061-2.11L3.61 13.878a1.245 1.245 0 1 1 1.76-1.76l3.475 3.475.171-.155-5.18-5.181a1.245 1.245 0 0 1 1.76-1.76l5.269 5.268.172-.155L5.42 7.994a1.245 1.245 0 0 1 1.76-1.76l5.705 5.704.171-.155L8.59 7.315Z" fill="#03FFA3"/>
    <path d="M12.396 2.97c.422-.015 1.424.15 2.062.935.637.786.813 1.752.82 2.137M15.17 1.293c.26-.01.88.095 1.277.587.395.492.505 1.095.51 1.335M7.336 20.633c-.418.058-1.431-.007-2.144-.726-.712-.719-.982-1.663-1.028-2.044M4.742 22.577c-.258.035-.886-.007-1.328-.457a2.442 2.442 0 0 1-.64-1.279" stroke="#77E2C4" stroke-width="1.193" stroke-linecap="round"/>
</svg>
